X: 51
T: No_45_Closing_Song_of_the_Dragging-Feet_Dance.krn
N: Derived from No_45_Closing_Song_of_the_Dragging-Feet_Dance.krn
%%abc-version 2.0
%%abcx-abcm2ps-target-version 5.9.1 (29 Sep 2008)
%%abc-creator hum2abc beta
%%abcx-conversion-date 2019/03/15 08:36:49
%%humdrum-veritas 2742188894
%%humdrum-veritas-data 4125948445
%%linebreak <none>
%%barnumbers 0
L: 1/8
M: 3/4
%%staves {1 2}
V: 1 clef=bass
V: 2 clef=bass
K: Bb
[V:1] [K:clef=bass][M:3/4]D/DC/!fermata!D2C3/B,/ | 
[V:2] [K:clef=bass][M:3/4]G,,2G,,2G,,2 | 
[V:1] D4CC | 
[V:2] G,,2G,,2G,,2 | 
[V:1] B,B,B,2G,2 ||  
[V:2] G,,2G,,2G,,2 ||  
[V:1] [M:2/4]B,B, G,B, ||  
[V:2] [M:2/4]G,,2G,,2 ||  
[V:1] [M:3/4]B,6 ||  
[V:2] [M:3/4]G,,2z4 ||  
[V:1] [M:2/4]DD CD/C/ | 
[V:2] [M:2/4]z G,,z2 | 
[V:1] CB, G,B,/G,/ | 
[V:2] z G,,z2 | 
[V:1] (3F,D,D,D,2 | 
[V:2] z G,,z2 | 
[V:1] D,2B,,2 | 
[V:2] G,,2z2 | 
[V:1] D,D, B,,D, ||  
[V:2] G,,2G,,2 ||  
[V:1] [M:3/4]D,6 ||  
[V:2] [M:3/4]G,,2G,,2G,,2 ||  
[V:1] [M:2/4]B,B, G,B,/G,/ | 
[V:2] [M:2/4]G,,2G,,2 | 
[V:1] G,F, D,F,/D,/ | 
[V:2] G,,2G,,2 | 
[V:1] D,B,, B,,B,, | 
[V:2] G,,2G,,2 | 
[V:1] B,,4 |]  
[V:2] G,,2G,,2 |]  



